src/icons/android-copy.svg

<svg xmlns="http://www.w3.org/2000/svg" width="512" height="512" viewBox="0 0 512 512">
    <path d="M296 41.5H176.5C154.4 41.5 136 58.9 136 81v8.5h-7.5C106.4 89.5 88 106.9 88 129v288c0 22.1 18.4 40.5 40.5 40.5h208c22.1 0 39.5-18.4 39.5-40.5v-7.5h8.5c22.1 0 39.5-18.4 39.5-40.5V169.5l-128-128zm0 44.6l83.4 83.4H296V86.1zM344 417c0 4.7-3.4 8.5-7.5 8.5h-208c-4.4 0-8.5-4.1-8.5-8.5V129c0-4.1 3.8-7.5 8.5-7.5h7.5V377c0 22.1 10.4 32.5 32.5 32.5H344v7.5zm48-48c0 4.7-3.4 8.5-7.5 8.5h-208c-4.4 0-8.5-4.1-8.5-8.5V81c0-4.1 3.8-7.5 8.5-7.5H264v128h128V369z"/>
</svg>

<?xml version="1.0" encoding="UTF-8"?>
<svg width="512px" height="512px" viewBox="0 0 512 512" version="1.1" xmlns="http://www.w3.org/2000/svg" xmlns:xlink="http://www.w3.org/1999/xlink">
    <!-- Generator: Sketch 62 (91390) - https://sketch.com -->
    <title>android-copy</title>
    <desc>Created with Sketch.</desc>
    <g id="android-copy" stroke="none" stroke-width="1" fill="none" fill-rule="evenodd">
        <path d="M296,41.5 L176.5,41.5 C154.4,41.5 136,58.9 136,81 L136,89.5 L128.5,89.5 C106.4,89.5 88,106.9 88,129 L88,417 C88,439.1 106.4,457.5 128.5,457.5 L336.5,457.5 C358.6,457.5 376,439.1 376,417 L376,409.5 L384.5,409.5 C406.6,409.5 424,391.1 424,369 L424,169.5 L296,41.5 Z M296,86.1 L379.4,169.5 L296,169.5 L296,86.1 Z M344,417 C344,421.7 340.6,425.5 336.5,425.5 L128.5,425.5 C124.1,425.5 120,421.4 120,417 L120,129 C120,124.9 123.8,121.5 128.5,121.5 L136,121.5 L136,377 C136,399.1 146.4,409.5 168.5,409.5 L344,409.5 L344,417 Z M392,369 C392,373.7 388.6,377.5 384.5,377.5 L176.5,377.5 C172.1,377.5 168,373.4 168,369 L168,81 C168,76.9 171.8,73.5 176.5,73.5 L264,73.5 L264,201.5 L392,201.5 L392,369 Z" id="Shape" fill="#000000" fill-rule="nonzero"></path>
    </g>
</svg>
